logo/lucene.svg

<?xml version="1.0" encoding="UTF-8"?>
<svg width="512px" height="113px" viewBox="0 0 512 113" version="1.1" xmlns="http://www.w3.org/2000/svg" preserveAspectRatio="xMidYMid">
    <title>Lucene</title>
    <g>
        <path d="M176.403511,75.2719321 C174.880182,82.5546937 172.490852,87.9593793 169.230304,91.4807719 C165.969755,95.0021645 161.342384,96.7654692 155.337758,96.7654692 C149.333131,96.7654692 145.420473,95.0021645 143.594565,91.4807719 C141.890385,88.1941388 141.644983,83.2669483 142.85836,76.7034419 L142.993946,75.9939478 C143.017474,75.8746553 143.041468,75.7548411 143.065926,75.6345051 L151.049484,37.4443501 L133.16081,37.4443501 L125.325059,74.9067507 C124.349503,79.5706395 123.885201,83.7597925 123.885201,87.5107278 L123.921719,87.5107278 L123.874767,87.7298366 C123.879984,89.1175262 123.947803,90.4582638 124.088659,91.7207483 C124.62078,96.4420228 126.055422,100.307729 128.392583,103.307434 C130.724528,106.312356 133.885956,108.529529 137.866433,109.974604 C141.846911,111.419679 146.562969,112.134392 152.004173,112.134392 C157.367123,112.134392 162.338808,111.43533 166.91401,110.03199 C171.489212,108.633867 175.574027,106.427127 179.163239,103.427422 C182.752451,100.427718 185.830409,96.603746 188.407547,91.9607247 C190.979468,87.3177033 192.941014,81.7565114 194.297402,75.2719321 L202.206189,37.4443501 L184.317515,37.4443501 L176.403511,75.2719321 Z M299.605248,36.552264 L284.251976,109.974604 L340.917705,109.974604 L344.110434,94.72567 L305.33338,94.72567 L308.035723,81.7982464 L346.218053,81.7982464 L349.431649,66.429324 L311.24932,66.429324 L314.30641,51.8011982 L353.083464,51.8011982 L356.270976,36.552264 L299.605248,36.552264 Z M441.034809,36.552264 L423.626088,36.552264 L413.442742,85.2518196 L396.529624,36.552264 L372.229406,36.552264 L356.881351,109.974604 L374.290073,109.974604 L384.650792,60.4142637 L403.556758,109.974604 L425.686754,109.974604 L441.034809,36.552264 Z M457.467975,36.552264 L442.11992,109.974604 L496.651945,109.974604 L499.839458,94.72567 L463.196107,94.72567 L465.89845,81.7982464 L502.5418,81.7982464 L505.755397,66.429324 L469.112046,66.429324 L472.174354,51.8011982 L508.812488,51.8011982 L512,36.552264 L457.467975,36.552264 Z M59.2011309,109.974604 L110.45174,109.974604 L113.514047,95.3360447 L113.665337,94.6056818 L80.3086191,94.6056818 L92.2604865,37.449567 L74.3665951,37.449567 L71.4190591,51.5612218 L68.3254504,66.3458539 L59.3159022,109.452916 L59.2011309,109.974604 Z M50.4524266,68.2917494 L19.2085446,68.2917494 L43.0340262,103.761303 L50.3898241,68.5838946 L50.4524266,68.2917494 Z M53.1495525,53.1419359 L53.4834327,51.5612218 L56.4309687,37.449567 L0,37.449567 L10.5433103,53.1419359 L53.1495525,53.1419359 Z M239.324276,93.5414387 C228.123639,93.5414387 220.945215,84.464071 223.287593,73.2634341 C225.629971,62.0627971 236.606282,52.9854295 247.806919,52.9854295 C256.493021,52.9854295 262.737624,58.4579345 264.020976,66.1319619 L282.212229,66.1319619 C282.530459,48.6397702 269.942132,35.4149846 251.479601,35.4149846 C230.575571,35.4149846 210.088892,52.3594042 205.717148,73.2634341 C201.345404,94.167464 214.747564,111.111884 235.651594,111.111884 C253.628955,111.111884 271.272436,98.5600753 278.649102,81.7512945 L260.191788,81.7512945 C255.517465,88.7053928 247.48869,93.5414387 239.324276,93.5414387 Z" fill="#019B8F"></path>
        <path d="M148.391693,15.6765617 L154.994696,15.6765617 L154.202774,6.08689668 L148.391693,15.6765617 Z M155.394309,20.1484695 L145.675265,20.1484695 L142.995877,24.5400373 L136.748143,24.5400373 L151.96369,0.43597449 L159.373743,0.43597449 L162.014527,24.5400373 L155.766272,24.5400373 L155.394309,20.1484695 Z M182.798725,4.94038341 L181.042724,11.6727644 L184.481168,11.6727644 C185.686789,11.6727644 186.693646,11.3821843 187.50174,10.8010241 C188.312965,10.2089085 188.85865,9.37472967 189.139318,8.29848775 C189.419986,7.22224583 189.307824,6.39328392 188.803352,5.81212372 C188.298358,5.23096352 187.44279,4.94038341 186.237691,4.94038341 L182.798725,4.94038341 Z M177.758178,0.436130996 L188.074554,0.436130996 C191.142078,0.436130996 193.315429,1.11954201 194.594608,2.48636403 C195.887872,3.84275229 196.20558,5.77977908 195.548775,8.29848775 C194.88884,10.8276302 193.557492,12.7761341 191.554211,14.1429561 C189.564494,15.4988227 187.035873,16.1770168 183.968349,16.1770168 L179.867883,16.1770168 L177.686185,24.5401939 L171.470275,24.5401939 L177.758178,0.436130996 Z M207.697579,15.6765617 L214.300582,15.6765617 L213.50866,6.08689668 L207.697579,15.6765617 Z M214.700194,20.1484695 L204.981151,20.1484695 L202.301762,24.5400373 L196.054029,24.5400373 L211.269576,0.43597449 L218.679629,0.43597449 L221.320413,24.5400373 L215.072158,24.5400373 L214.700194,20.1484695 Z M250.236837,23.2161502 C248.941486,23.8082659 247.635701,24.2548306 246.319483,24.5563662 C245.002743,24.85738 243.671917,25.0081478 242.326485,25.0081478 C238.312097,25.0081478 235.423512,23.8886058 233.66125,21.6500435 C231.901597,19.4005257 231.522852,16.3549124 232.525014,12.5121601 C233.530307,8.65897401 235.498113,5.61336067 238.428433,3.37427665 C241.361362,1.12475888 244.835281,0 248.850191,0 C250.195623,0 251.447674,0.150767773 252.606864,0.452303318 C253.766055,0.753317175 254.838645,1.20040362 255.825156,1.79199757 L254.524067,6.78089795 C253.577204,5.99523613 252.592257,5.41929281 251.568184,5.05358967 C250.544111,4.68736483 249.413613,4.50425242 248.175648,4.50425242 C245.958475,4.50425242 244.029274,5.21479119 242.389087,6.63534706 C240.748379,8.05642461 239.602231,10.0153623 238.950643,12.5121601 C238.302185,14.9985241 238.427912,16.9522449 239.327302,18.3728007 C240.226691,19.7933566 241.784973,20.5038954 244.002146,20.5038954 C245.240111,20.5038954 246.466077,20.320783 247.681088,19.9550798 C248.896099,19.588855 250.181538,19.0129117 251.537926,18.2272499 L250.236837,23.2161502 Z M267.588538,0.436026659 L273.804448,0.436026659 L271.407814,9.62242703 L280.578042,9.62242703 L282.974154,0.436026659 L289.190064,0.436026659 L282.902683,24.5400895 L276.686773,24.5400895 L279.352598,14.3202256 L270.18237,14.3202256 L267.516545,24.5400895 L261.301157,24.5400895 L267.588538,0.436026659 Z M301.51979,0.436026659 L318.29414,0.436026659 L317.068695,5.13434694 L306.509734,5.13434694 L305.339067,9.62242703 L315.26835,9.62242703 L314.042906,14.3202256 L304.113622,14.3202256 L302.673242,19.8417692 L313.586951,19.8417692 L312.361506,24.5400895 L295.232409,24.5400895 L301.51979,0.436026659 Z" fill="#019B8F"></path>
    </g>
</svg>

<svg viewBox="0 0 512 113" xmlns="http://www.w3.org/2000/svg"><g fill="#019B8F"><path d="M176.4 75.27c-1.53 7.28-3.92 12.68-7.18 16.2 -3.27 3.52-7.89 5.28-13.9 5.28 -6.01 0-9.92-1.77-11.75-5.29 -1.71-3.29-1.95-8.22-.74-14.78l.13-.71c.02-.12.04-.24.07-.36l7.98-38.2h-17.89l-7.84 37.46c-.98 4.66-1.44 8.85-1.44 12.6h.03l-.05.21c0 1.38.07 2.72.21 3.99 .53 4.72 1.96 8.58 4.3 11.58 2.33 3 5.49 5.22 9.47 6.66 3.98 1.44 8.69 2.15 14.13 2.15 5.36 0 10.33-.7 14.9-2.11 4.57-1.4 8.66-3.61 12.24-6.61 3.58-3 6.66-6.83 9.24-11.47 2.57-4.65 4.53-10.21 5.88-16.69l7.9-37.83H184.2l-7.92 37.82Zm123.2-38.72l-15.36 73.42h56.66l3.19-15.25h-38.78l2.7-12.93h38.18l3.21-15.37h-38.19l3.05-14.63h38.77l3.18-15.25h-56.67Zm141.42 0h-17.41l-10.19 48.69 -16.92-48.7h-24.31l-15.35 73.42h17.4l10.36-49.57 18.9 49.56h22.12l15.34-73.43Zm16.43 0l-15.35 73.42h54.53l3.18-15.25h-36.65l2.7-12.93h36.64l3.21-15.37h-36.65l3.06-14.63h36.63l3.18-15.25h-54.54ZM59.18 109.97h51.25l3.06-14.64 .15-.74H80.28l11.95-57.16h-17.9l-2.95 14.11 -3.1 14.78 -9.01 43.1 -.12.52Zm-8.75-41.69H19.18L43 103.74l7.35-35.18 .06-.3Zm2.69-15.15l.33-1.59 2.94-14.12H-.05l10.54 15.69h42.6Zm186.17 40.39c-11.21 0-18.38-9.08-16.04-20.28 2.34-11.21 13.31-20.28 24.51-20.28 8.68 0 14.93 5.47 16.21 13.14h18.19c.31-17.5-12.28-30.72-30.74-30.72 -20.91 0-41.4 16.94-45.77 37.84 -4.38 20.9 9.03 37.84 29.93 37.84 17.97 0 35.62-12.56 42.99-29.37h-18.46c-4.68 6.95-12.71 11.79-20.87 11.79Z"/><path d="M148.39 15.67h6.6l-.8-9.59 -5.82 9.58Zm7 4.47h-9.72l-2.68 4.39h-6.25L151.95.42h7.41l2.64 24.1h-6.25l-.38-4.4Zm27.4-15.21l-1.76 6.73h3.43c1.2 0 2.21-.3 3.02-.88 .81-.6 1.35-1.43 1.63-2.51 .28-1.08.16-1.91-.34-2.49 -.51-.59-1.37-.88-2.57-.88h-3.44ZM177.74.42h10.31c3.06-.001 5.24.68 6.52 2.05 1.29 1.35 1.61 3.29.95 5.81 -.66 2.52-2 4.47-4 5.84 -1.99 1.35-4.52 2.03-7.59 2.03h-4.11l-2.19 8.36h-6.22L177.69.4Zm29.93 15.24h6.6l-.8-9.59 -5.82 9.58Zm7 4.47h-9.72l-2.68 4.39h-6.25L211.23.41h7.41l2.64 24.1h-6.25l-.38-4.4Zm35.53 3.06c-1.3.59-2.61 1.03-3.92 1.34 -1.32.3-2.65.45-4 .45 -4.02 0-6.91-1.12-8.67-3.36 -1.76-2.25-2.14-5.3-1.14-9.14 1-3.86 2.97-6.9 5.9-9.14 2.93-2.25 6.4-3.38 10.42-3.38 1.34 0 2.59.15 3.75.45 1.15.3 2.23.74 3.21 1.33l-1.31 4.98c-.95-.79-1.94-1.37-2.96-1.73 -1.03-.37-2.16-.55-3.4-.55 -2.22 0-4.15.71-5.79 2.13 -1.65 1.42-2.79 3.38-3.44 5.87 -.65 2.48-.53 4.44.37 5.86 .89 1.42 2.45 2.13 4.67 2.13 1.23 0 2.46-.19 3.67-.55 1.21-.37 2.5-.95 3.85-1.73l-1.31 4.98ZM267.55.4h6.21l-2.4 9.18h9.17l2.39-9.19h6.21l-6.29 24.1h-6.22l2.66-10.22h-9.18l-2.67 10.21h-6.22L267.49.37Zm33.93 0h16.77l-1.23 4.69h-10.56l-1.18 4.48h9.92l-1.23 4.69h-9.93l-1.45 5.52h10.91l-1.23 4.69h-17.13L301.42.36Z"/></g></svg>
